!!! OTL: Berkowitz101
!!! Chapter: 1
!!! Section: I
!!! Page: 25
!!! Mode: 
!!! Encoder: DJB
**kern
*staff1
*I"Piano
=1-
*clefG2
*k[b-e-a-]
*E-:
*M6/8
8e-/L
8g/
8a-/J
4b-\
8e-/
=2
8ee-\L
8dd\
8cc\J
8.b-/L
16a-/K
8g/J
=3
8f/L
8g/
8a-/J
8b-/L
8g/
8e-/J
=4
8.e-/L
16d/K
8e-/J
8f/
8r
8B-/
=5
8e-/L
8g/
8a-/J
4b-\
8e-/
=6
8.ee-\L
16dd\K
8cc\J
8b-/L
16b-/L
16a-/J
8g/J
=7
!!linebreak:original
8.f/L
16g/K
8a-/J
8b-/L
8g/
8e-/J
=8
8B-/L
8g/
8f/J
4.e-/
=9
8.f/L
16g/K
8a-/J
8b-/L
8g/
8e-/J
=10
8B-/L
8g/
8f/J
4.e-/
==
*-
